X: 205
T: WALTZ: Far Away
C: C: Pete Jung; S: Various
C: Set Leaders: Olya, Tania, Oliushka, Andrey
Z: Oleg Naumov arr.; Thistledowne at The Session
N: https://thesession.org/members/26966/sets/92071
R: Waltz
M: 3/4
L: 1/8
Q: 1/4=144
K: Bmin
|:FA|"Bm"B3 F Bd|"F#m"cA F2 FA|"Bm"B3 F Be|"A"c4 dc|
"G (Em)"B3 G Bd|"A"cA F2 de|"G"fe d"A"c BA|1 "Bm"B4:|2 "Bm"B3||
|:c de|"D"f3 d fa|"A"ec A2 de|"D"f3 d fa|"Em"e4 de|
"Bm"fd B"A"e cA|"G"dB G"F#m"c AE|"Bm"F2 B2 "F#m"A2|1 "G"B3:|2 "Bm"B6||

